icons/header2.svg

<?xml version="1.0" encoding="UTF-8" standalone="no"?>
<svg width="24px" height="24px" viewBox="0 0 24 24" version="1.1" xmlns="http://www.w3.org/2000/svg" xmlns:xlink="http://www.w3.org/1999/xlink">
    <!-- Generator: Sketch 40.1 (33804) - http://www.bohemiancoding.com/sketch -->
    <title>header2</title>
    <desc>Created with Sketch.</desc>
    <defs></defs>
    <g id="Page-1" stroke="none" stroke-width="1" fill="none" fill-rule="evenodd">
        <g id="header2" fill="#777777">
            <path d="M6.05933974,12.9596044 L6.05933974,17.7803315 L4,17.7803315 L4,7 L6.05933974,7 L6.05933974,11.3214932 L9.89720017,11.3214932 L9.89720017,7 L11.972141,7 L11.972141,17.7803315 L9.89720017,17.7803315 L9.89720017,12.9596044 L6.05933974,12.9596044 Z M17.9072294,8.95458978 C18.3485187,9.17746316 18.6850525,9.48056641 18.9168408,9.86390862 C19.1486291,10.2472508 19.2645215,10.6751613 19.2645215,11.1476529 C19.2645215,11.6558042 19.1553152,12.1438896 18.9368993,12.6119237 C18.7184834,13.0799578 18.3552052,13.599245 17.8470539,14.1698008 C17.3389026,14.7403567 16.5945167,15.4936574 15.6138738,16.4297256 L19.4651066,16.4297256 L19.2778939,17.7803315 L13.6748851,17.7803315 L13.6748851,16.5233319 C14.8159968,15.3643904 15.6339298,14.5063407 16.1287087,13.9491573 C16.6234876,13.3919738 16.9756223,12.9150319 17.1851233,12.5183173 C17.3946243,12.1216027 17.4993732,11.7092931 17.4993732,11.2813762 C17.4993732,10.8712892 17.3812521,10.5503564 17.1450063,10.318568 C16.9087605,10.0867797 16.5945137,9.97088731 16.2022566,9.97088731 C15.8545741,9.97088731 15.5514709,10.0444344 15.2929377,10.1915309 C15.0344046,10.3386273 14.7625032,10.5815556 14.4772252,10.9203232 L13.4208107,10.0912383 C14.1785802,9.11059546 15.1502936,8.62028138 16.3359799,8.62028138 C16.9421955,8.62028138 17.4659401,8.7317164 17.9072294,8.95458978 L17.9072294,8.95458978 Z" id="H2"></path>
        </g>
    </g>
</svg>

<svg xmlns="http://www.w3.org/2000/svg" viewBox="0 0 24 24">
  <path fill-rule="evenodd" d="M6.06 12.96v4.82H4V7h2.06v4.32h3.837V7h2.075v10.78H9.897v-4.82H6.06zm11.847-4.005c.442.222.778.526 1.01.91.232.382.348.81.348 1.283 0 .508-.11.996-.328 1.464-.22.468-.582.987-1.09 1.558-.508.57-1.252 1.324-2.233 2.26h3.85l-.186 1.35h-5.603v-1.257c1.14-1.16 1.96-2.017 2.454-2.574.493-.558.846-1.035 1.055-1.432.21-.396.314-.81.314-1.237 0-.41-.12-.73-.355-.96-.236-.233-.55-.35-.943-.35-.347 0-.65.074-.91.222-.258.147-.53.39-.815.728l-1.056-.83c.76-.98 1.73-1.47 2.916-1.47.606 0 1.13.112 1.57.335z"/>
</svg>
